storage/app/icons/tabler/filled/circle-number-2.svg

<!--
version: "2.4"
unicode: "f731"
-->
<svg
  xmlns="http://www.w3.org/2000/svg"
  width="24"
  height="24"
  viewBox="0 0 24 24"
  fill="currentColor"
>
  <path d="M12 2c5.523 0 10 4.477 10 10s-4.477 10 -10 10s-10 -4.477 -10 -10s4.477 -10 10 -10zm1 5h-3l-.117 .007a1 1 0 0 0 0 1.986l.117 .007h3v2h-2l-.15 .005a2 2 0 0 0 -1.844 1.838l-.006 .157v2l.005 .15a2 2 0 0 0 1.838 1.844l.157 .006h3l.117 -.007a1 1 0 0 0 0 -1.986l-.117 -.007h-3v-2h2l.15 -.005a2 2 0 0 0 1.844 -1.838l.006 -.157v-2l-.005 -.15a2 2 0 0 0 -1.838 -1.844l-.157 -.006z" />
</svg>

<svg xmlns="http://www.w3.org/2000/svg" width="24" height="24" fill="currentColor" viewBox="0 0 24 24"><path d="M12 2c5.523 0 10 4.477 10 10s-4.477 10-10 10S2 17.523 2 12 6.477 2 12 2m1 5h-3l-.117.007a1 1 0 0 0 0 1.986L10 9h3v2h-2l-.15.005a2 2 0 0 0-1.844 1.838L9 13v2l.005.15a2 2 0 0 0 1.838 1.844L11 17h3l.117-.007a1 1 0 0 0 0-1.986L14 15h-3v-2h2l.15-.005a2 2 0 0 0 1.844-1.838L15 11V9l-.005-.15a2 2 0 0 0-1.838-1.844z"/></svg>
